icon/gr/document-notes.svg

<svg xmlns="http://www.w3.org/2000/svg" viewBox="0 0 24 24" height="1em" width="1em">
  <path fill="none" stroke="#000" stroke-width="2" d="M4.99787498,8.99999999 L4.99787498,0.999999992 L19.4999998,0.999999992 L22.9999998,4.50000005 L23,23 L4,23 M18,1 L18,6 L23,6 M9.75,12 L9.75,18.5 L9.5,18.5 L4.5,12 L4,12 L4,19 L4.25,19 L4.25,12.5 L4.5,12.5 L9.5,19 L10,19 L10,12 L9.75,12 Z"/>
</svg>

<svg xmlns="http://www.w3.org/2000/svg" width="24" height="24"><path fill="none" stroke="#000" stroke-width="2" d="M4.998 9V1H19.5L23 4.5V23H4M18 1v5h5M9.75 12v6.5H9.5l-5-6.5H4v7h.25v-6.5h.25l5 6.5h.5v-7h-.25Z"/></svg>
